src/svg-icons/svg/room-tools.svg

<?xml version="1.0" encoding="UTF-8" standalone="no"?>
<svg width="32px" height="32px" viewBox="0 0 32 32" version="1.1" xmlns="http://www.w3.org/2000/svg" xmlns:xlink="http://www.w3.org/1999/xlink">
    <!-- Generator: Sketch 3.7.2 (28276) - http://www.bohemiancoding.com/sketch -->
    <title>Artboard 1</title>
    <desc>Created with Sketch.</desc>
    <defs></defs>
    <g id="Page-1" stroke="none" stroke-width="1" fill="none" fill-rule="evenodd">
        <g id="Artboard-1" fill="#000000">
            <path d="M20.4958543,23.0983045 L20.9186958,23.5723995 L21.3678956,23.1231997 L23.489216,21.0018793 L23.9384158,20.5526795 L23.4643208,20.129838 L16.9472656,14.3478394 C17.8943481,12.8651733 17.4626845,10.6555682 15.9681711,9.16105487 C14.7253344,7.91821812 12.2292281,7.74727222 11.2652488,7.99567591 C10.3012695,8.24407959 10.3136404,8.2891373 10.3136404,8.2891373 L11.0177988,8.99329569 L13.5244751,11.5194702 L11.6673584,13.3778076 L9.16646469,10.8446298 L8.4623063,10.1404714 C8.4623063,10.1404714 8.25878906,10.744873 8.16884491,11.0920798 C7.818612,12.4440656 8.09138712,14.5521654 9.33422387,15.7950021 C10.9109795,17.3717578 13.3312988,17.4493408 14.7744751,16.7050171 C16.7077544,18.8816443 20.4958543,23.0983045 20.4958543,23.0983045 Z M20.9493408,21.8056641 L15.3329413,15.5067395 L14.989312,15.1214581 L14.5570736,15.4037572 C13.1858362,16.2993258 11.473938,16.249939 10.182752,14.946474 C9.57311825,14.3310427 9.17608643,13.1453247 9.18000031,12.5500002 C9.87201739,13.2472388 11.2626969,14.6379183 11.2626969,14.6379183 L11.686961,15.0621824 L12.1112251,14.6379183 L14.8110873,11.9380561 L15.2353514,11.513792 L14.8110873,11.0895279 L12.7200003,8.98999977 C13.6027428,9.00438403 14.4663748,9.35631484 15.119643,10.009583 C16.2318157,11.1217558 16.4560113,12.8301591 15.6991917,14.1819913 L15.4639,14.6022698 L15.8233605,14.9228697 L22.1900005,20.6100006 L20.9493408,21.8056641 Z" id="Combined-Shape"></path>
        </g>
    </g>
</svg>

<svg width="32" height="32" viewBox="0 0 32 32" xmlns="http://www.w3.org/2000/svg"><path d="M20.496 23.098l.423.474.448-.45 2.12-2.12.45-.45-.474-.422-6.517-5.782c.947-1.483.516-3.692-.98-5.187-1.242-1.242-3.738-1.413-4.702-1.164-.964.248-.95.293-.95.293l.703.703 2.506 2.526-1.857 1.858-2.5-2.533-.705-.705s-.203.605-.293.952c-.35 1.352-.08 3.46 1.164 4.703 1.577 1.577 3.997 1.654 5.44.91a2110.14 2110.14 0 0 0 5.722 6.393zm.453-1.292l-5.617-6.3-.344-.385-.433.284c-1.37.895-3.083.846-4.374-.458-.61-.615-1.007-1.8-1.003-2.396.692.697 2.083 2.088 2.083 2.088l.424.424.424-.424 2.7-2.7.425-.424-.424-.424-2.09-2.1a3.47 3.47 0 0 1 2.4 1.02 3.493 3.493 0 0 1 .58 4.172l-.236.42.36.32 6.366 5.688-1.24 1.196z" fill="#000" fill-rule="evenodd"/></svg>
